X: 100258
M: C|
L: 1/8
K: Am
ue |\
cA A/A/A A2AB | cdef gece | fd d/d/d d2df | eE E/E/E A2A ||
uc |\



